icons/evolvere-blue-folders-flat-vivid-dark-fallback/apps/64/audacious.svg

<?xml version="1.0" encoding="UTF-8" standalone="no"?>
<!-- Created with Inkscape (http://www.inkscape.org/) -->

<svg
   xmlns:dc="http://purl.org/dc/elements/1.1/"
   xmlns:cc="http://creativecommons.org/ns#"
   xmlns:rdf="http://www.w3.org/1999/02/22-rdf-syntax-ns#"
   xmlns:svg="http://www.w3.org/2000/svg"
   xmlns="http://www.w3.org/2000/svg"
   xmlns:sodipodi="http://sodipodi.sourceforge.net/DTD/sodipodi-0.dtd"
   xmlns:inkscape="http://www.inkscape.org/namespaces/inkscape"
   width="64"
   height="64"
   id="svg13094"
   version="1.1"
   inkscape:version="0.91+devel r"
   sodipodi:docname="audacious.svg">
  <sodipodi:namedview
     id="base"
     pagecolor="#ffffff"
     bordercolor="#666666"
     borderopacity="1.0"
     inkscape:pageopacity="0"
     inkscape:pageshadow="2"
     inkscape:zoom="11.313709"
     inkscape:cx="15.403678"
     inkscape:cy="30.551968"
     inkscape:document-units="px"
     inkscape:current-layer="svg13094"
     showgrid="true"
     inkscape:snap-bbox="true"
     inkscape:bbox-paths="true"
     inkscape:bbox-nodes="true"
     inkscape:snap-bbox-edge-midpoints="true"
     inkscape:snap-bbox-midpoints="true"
     inkscape:object-paths="true"
     inkscape:snap-intersection-paths="true"
     inkscape:object-nodes="true"
     inkscape:snap-smooth-nodes="true"
     inkscape:snap-midpoints="true"
     inkscape:snap-object-midpoints="true"
     inkscape:snap-center="true"
     showguides="false"
     inkscape:guide-bbox="true"
     inkscape:window-width="1920"
     inkscape:window-height="1023"
     inkscape:window-x="-10"
     inkscape:window-y="35"
     inkscape:window-maximized="1"
     inkscape:snap-global="true"
     fit-margin-top="0"
     fit-margin-left="0"
     fit-margin-right="0"
     fit-margin-bottom="0"
     showborder="true"
     inkscape:showpageshadow="false"
     inkscape:snap-page="true">
    <inkscape:grid
       type="xygrid"
       id="grid3075"
       empspacing="5"
       visible="true"
       enabled="true"
       snapvisiblegridlinesonly="true"
       originx="1.6362304e-08px"
       originy="18px" />
    <sodipodi:guide
       orientation="0,1"
       position="-11,30"
       id="guide9148" />
    <sodipodi:guide
       orientation="1,0"
       position="32,70"
       id="guide9150" />
  </sodipodi:namedview>
  <defs
     id="defs13096" />
  <metadata
     id="metadata13099">
    <rdf:RDF>
      <cc:Work
         rdf:about="">
        <dc:format>image/svg+xml</dc:format>
        <dc:type
           rdf:resource="http://purl.org/dc/dcmitype/StillImage" />
        <dc:title></dc:title>
      </cc:Work>
    </rdf:RDF>
  </metadata>
  <path
     id="path6538"
     d="m 0,4 0,30 0,28 2,2 30,0 30,0 2,-2 L 64,34 64,4 32,4 0,4 z"
     style="color:#000000;fill:#8faddc;fill-opacity:1;fill-rule:nonzero;stroke:none;stroke-width:2.28571415;marker:none;visibility:visible;display:inline;overflow:visible;enable-background:accumulate"
     inkscape:connector-curvature="0" />
  <path
     style="color:#000000;fill:#c5deff;fill-opacity:1;fill-rule:nonzero;stroke:none;marker:none;visibility:visible;display:inline;overflow:visible;enable-background:accumulate"
     d="M 2 0 L 0 1 L 0 4 L 19.5625 4 L 39.125 4 L 64 4 L 64 1 L 62 0 L 39.125 0 L 19.5625 0 L 2 0 z "
     id="path6688" />
  <path
     d="M 64,6 62,4 64,3 z"
     id="path3028"
     style="fill:#abc7ee;fill-opacity:1"
     inkscape:connector-curvature="0" />
  <g
     id="g3043"
     inkscape:export-filename="folder.png"
     inkscape:export-xdpi="90"
     inkscape:export-ydpi="90"
     transform="translate(-0.62500009,0.082283)" />
  <g
     id="scalable"
     transform="matrix(1.0385892,0,0,1.0385892,1214.7222,1878.8121)"
     inkscape:label="#g3701"
     style="fill:#ffffff" />
  <path
     style="fill:#d7e8ff;fill-opacity:1;fill-rule:nonzero"
     d="M 0,3 0,6 2,4 Z"
     id="path4298"
     inkscape:connector-curvature="0"
     sodipodi:nodetypes="cccc" />
  <path
     inkscape:connector-curvature="0"
     style="font-size:medium;font-style:normal;font-variant:normal;font-weight:normal;font-stretch:normal;text-indent:0;text-align:start;text-decoration:none;line-height:normal;letter-spacing:normal;word-spacing:normal;text-transform:none;direction:ltr;block-progression:tb;writing-mode:lr-tb;text-anchor:start;baseline-shift:baseline;color:#000000;fill:#002358;fill-opacity:0.60554564;stroke:none;stroke-width:2.28571415;marker:none;visibility:visible;display:inline;overflow:visible;enable-background:accumulate;font-family:Sans;-inkscape-font-specification:Sans"
     d="M 32,11 C 19.3316,11 9,21.3316 9,34 9,46.6684 19.3316,57 32,57 44.6684,57 55,46.6684 55,34 55,21.3316 44.6684,11 32,11 z m 0,3 C 43.016,14 52,22.984 52,34 52,45.016 43.016,54 32,54 20.984,54 12,45.016 12,34 12,22.984 20.984,14 32,14 z m -7,10 0,5 12,0 0,3 -12.5,0 C 23.115,32 22,33.115 22,34.5 l 0,8 c 0,1.385 1.115,2.5 2.5,2.5 l 15,0 c 1.385,0 2.5,-1.115 2.5,-2.5 l 0,-16 C 42,25.115 40.885,24 39.5,24 L 25,24 z m 2,13 10,0 0,3 -10,0 0,-3 z"
     id="path5863" />
  <path
     style="font-size:medium;font-style:normal;font-variant:normal;font-weight:normal;font-stretch:normal;text-indent:0;text-align:start;text-decoration:none;line-height:normal;letter-spacing:normal;word-spacing:normal;text-transform:none;direction:ltr;block-progression:tb;writing-mode:lr-tb;text-anchor:start;baseline-shift:baseline;color:#000000;fill:#00132f;fill-opacity:0.14758497;stroke:none;stroke-width:2.28571415;marker:none;visibility:visible;display:inline;overflow:visible;enable-background:accumulate;font-family:Sans;-inkscape-font-specification:Sans;opacity:1;stroke-linecap:butt;stroke-linejoin:miter;stroke-miterlimit:4;stroke-dasharray:none;stroke-dashoffset:0;stroke-opacity:1"
     d="M 32,11 C 19.3316,11 9,21.3316 9,34 9,40.587796 11.817784,46.519033 16.28125,50.71875 12.404867,46.598924 10,41.080604 10,35 10,22.3316 20.3316,12 33,12 39.080604,12 44.598924,14.404867 48.71875,18.28125 44.519033,13.817784 38.587796,11 32,11 z m 14.59375,9.40625 C 49.927349,23.981669 52,28.745486 52,34 52,45.016 43.016,54 32,54 26.745486,54 21.981669,51.927349 18.40625,48.59375 22.061484,52.514136 27.238514,55 33,55 44.016,55 53,46.016 53,35 53,29.238514 50.514136,24.061484 46.59375,20.40625 z M 25,24 l 0,5 1,0 0,-4 14.5,0 c 0.432812,0 0.833209,0.120514 1.1875,0.3125 C 41.265131,24.53306 40.452188,24 39.5,24 L 25,24 z m 12,6 0,2 -12.5,0 C 23.115,32 22,33.115 22,34.5 l 0,8 c 0,0.952188 0.53306,1.765131 1.3125,2.1875 C 23.120514,44.333209 23,43.932812 23,43.5 l 0,-8 C 23,34.115 24.115,33 25.5,33 l 12.5,0 0,-3 -1,0 z m 0,8 0,2 -9,0 0,1 10,0 0,-3 -1,0 z"
     id="path5829"
     inkscape:connector-curvature="0" />
</svg>

<svg xmlns="http://www.w3.org/2000/svg" viewBox="0 0 64 64"><g color="#000"><path d="m0 4v30 28l2 2h30 30l2-2v-28-30h-32-32" fill="#8faddc"/><path d="m2 0l-2 1v3h19.563 19.563 24.875v-3l-2-1h-22.875-19.563-17.563" fill="#c5deff"/></g><path d="m64 6l-2-2 2-1z" fill="#abc7ee"/><path d="m0 3v3l2-2" fill="#d7e8ff"/><g color="#000"><path d="m32 11c-12.668 0-23 10.332-23 23 0 12.668 10.332 23 23 23 12.668 0 23-10.332 23-23 0-12.668-10.332-23-23-23m0 3c11.02 0 20 8.984 20 20 0 11.02-8.984 20-20 20-11.02 0-20-8.984-20-20 0-11.02 8.984-20 20-20m-7 10v5h12v3h-12.5c-1.385 0-2.5 1.115-2.5 2.5v8c0 1.385 1.115 2.5 2.5 2.5h15c1.385 0 2.5-1.115 2.5-2.5v-16c0-1.385-1.115-2.5-2.5-2.5h-14.5m2 13h10v3h-10v-3" fill-opacity=".606" fill="#002358"/><path d="m32 11c-12.668 0-23 10.332-23 23 0 6.588 2.818 12.519 7.281 16.719-3.876-4.12-6.281-9.638-6.281-15.719 0-12.668 10.332-23 23-23 6.081 0 11.599 2.405 15.719 6.281-4.2-4.463-10.131-7.281-16.719-7.281m14.594 9.406c3.334 3.575 5.406 8.339 5.406 13.594 0 11.02-8.984 20-20 20-5.255 0-10.02-2.073-13.594-5.406 3.655 3.92 8.832 6.406 14.594 6.406 11.02 0 20-8.984 20-20 0-5.761-2.486-10.939-6.406-14.594m-21.594 3.594v5h1v-4h14.5c.433 0 .833.121 1.188.313-.422-.779-1.235-1.313-2.188-1.313h-14.5m12 6v2h-12.5c-1.385 0-2.5 1.115-2.5 2.5v8c0 .952.533 1.765 1.313 2.188-.192-.354-.313-.755-.313-1.188v-8c0-1.385 1.115-2.5 2.5-2.5h12.5v-3h-1m0 8v2h-9v1h10v-3h-1" fill-opacity=".148" fill="#00132f"/></g></svg>
